assets/si/si-asciidoctor.svg

<svg xmlns="http://www.w3.org/2000/svg" width="100%" height="100%" viewBox="-3.36 -3.36 30.72 30.72"><path d="M18.07 0H5.93A5.94 5.94 0 000 5.93v12.14A5.94 5.94 0 005.93 24h12.14A5.94 5.94 0 0024 18.07V5.93A5.94 5.94 0 0018.07 0zm-7.36 15.4h-1.9L7.2 19.28a.5.5 0 01-.66.27.51.51 0 01-.27-.67l1.45-3.48H4.85a.5.5 0 01-.5-.51.52.52 0 01.52-.5h5.86a.5.5 0 01.49.52.49.49 0 01-.51.49zm7.92 4.17a.51.51 0 01-.66-.29l-5.35-13L10.23 12h1.57a.5.5 0 01.49.52.49.49 0 01-.51.49H5.92a.5.5 0 01-.5-.51.52.52 0 01.52-.5h3.2l3-7.27a.49.49 0 01.45-.31.52.52 0 01.48.31l5.84 14.17a.51.51 0 01-.28.67z"/></svg>

<svg xmlns="http://www.w3.org/2000/svg" width="100%" height="100%" viewBox="-3.36 -3.36 30.72 30.72"><path d="M18.07,0H5.93A5.94,5.94,0,0,0,0,5.93V18.07A5.94,5.94,0,0,0,5.93,24H18.07A5.94,5.94,0,0,0,24,18.07V5.93A5.94,5.94,0,0,0,18.07,0ZM10.71,15.4H8.81v0L7.2,19.28h0a.5.5,0,0,1-.66.27.51.51,0,0,1-.27-.67L7.72,15.4H4.85a.5.5,0,0,1-.5-.51.52.52,0,0,1,.52-.5h5.86a.5.5,0,0,1,.49.52A.49.49,0,0,1,10.71,15.4Zm7.92,4.17a.51.51,0,0,1-.66-.29l-5.35-13L10.23,12H11.8a.5.5,0,0,1,.49.52.49.49,0,0,1-.51.49H5.92a.5.5,0,0,1-.5-.51.52.52,0,0,1,.52-.5h3.2l3-7.27a.49.49,0,0,1,.45-.31.52.52,0,0,1,.48.31L18.91,18.9h0A.51.51,0,0,1,18.63,19.57Z"/></svg>
